X: 1
T: the Rothesay Rant
R: jig
B: RSCDS 11-11
Z: 1997 by John Chambers <jc:trillian.mit.edu>
M: 6/8
L: 1/8
K: F
|: c \
| "F"{de}f2e d2c | "Bb"d2c d2f | "F"c2A A2f | "C7"A2G G2c \
| "F"f2e f2g | a3 f2a | "Bb"g2f f2d | "F"f3- f2 :|
|: c' \
| "F"a2f f2c' | a2f f2c' | "Bb"d'2c' "F"a2f | "C7"g2c' c'2 c' \
| "Bb" {c'd'e'}f'2e' d'2c' | "Gm"d'2c' b2a | "C7"g2d' d'2e | "F"f3- f2 :| [K:Bb]
|: F/>F \
| "Bb"d3 d2d | "F7"c3 c2c | "Eb"B2c B2G | "Bb"FD2 D2F \
| "F7"e3 e2e | "Bb"d3 f2g | f2d B2d | "F7"c3 f2e |
| "Bb"d3 f2d | "F"c3 f2e | "Bb"d2f c2d | "Eb"B2A G2F \
| G2B e2g | b<bz "F7"a2g | "Bb"f2d "F7"[d2A2E2]c | "Bb"[B3D3]- [B2D2] :|
